X:369
T:Reel 369
M:4/4
K:Dmaj
L:1/8
ed|cAAB =cAAB|cAGE EDDB|=cAAB cABG||Addc dfed:||2Addc d2|de|f2fd e2ec|dfed cAAg|fgfd e2ed|eaag edd2|fgfd efec|dfed cAAG|ABcd efge|afge dfed|
